X: 11220
T: Durham Rangers
R: barndance
M: 4/4
K: Dmajor
|:F>G|A>BA<F A2 d>e|f>gf<e d2 d>c|B>cd>B (3ABA F<A|B2 E2 E2 (3EFG|
A2 A<F A2 (3cde|f2 f<e d2- d>A|B>cd>B A2 A<G|(3FGF D2 D2:|
|:(3efg|f>^ef>g a>fd<g|f>^ef>g a2 f2|g>ab>g f>ga<f|e>^de>f e2 (3EFG|
A>B (3AGF (3ABA d>e|f>Ae>A d2 A2|(3 Bcd c<e d>BA<G|F2 D2 D2:|

